d1 $ slow 4 $ every 4 (rev) $ sound " [[[gretsch*1] [gretsch*1] [gretsch*1] [gretsch*1] [gretsch*1] [gretsch*4]] [[east*1] [east*1]] [[dr2*1] [dr2*1] [dr2*1] [dr2*1] [dr2*1]][~]]"

d2 $ sound "[[bd hh]]"

d3 $ slow 4 $ sound "[~] [~] [~] [arpy*12]" # up (run 12)

d1 silence

d2 silence

d3 silence

hush

d1 $ sound "[[cc*1] [cc*1] [cc*1] [cc*1] [cc*1] [cc*3] [cc*3]]"
