-- This is basically just a compilation of cool patterns you can make using TidalCycles


let thing = every 4

d1 $ every 2 (slowspread revstut [2, 4, 8]) $ s "bd cp bd*2 cp"

d1 $ sound "[odx odx, sn sn sn]"

d1 $ sound "sn [hh hh hh] odx"

d1 $ sound "[bd bd] [bd [sn [sn sn] sn] sn]"

d1 $ sound "arpy arpy arpy hh"

d1 $ sound "[bd bd bd, sn cp sn cp, arpy arpy, odx]"

d1 $ sound "[bd bd bd, [sn sn] cp, arpy [arpy [arpy arpy] arpy arpy], odx]"

d1 $ sound "[[bd*6] [sn*3]]/2"

d1 $ every 4 rev (sound "[bd bd] [bd [sn [sn sn] sn] sn]")

d1 $ density 0.5  (sound "bd*2 [bd [sn sn*2 sn] sn]")

d1 $ sound "bd*2 [bd [sn sn*2 sn] sn]"

d1 $ every 4 (slow 4) $ sound "bd*2 [bd [sn sn*2 sn] sn]"

d1 $ sound $ every 4 (density 4) "bd*2 [bd [sn sn*2 sn] sn]"

d1 $ sound "bd*4" # delay "1"

d1 $ pan "0 1 0.25 0.75" # sound "bd sn drum arpy"

d1 $ sound "bd(5,8)"

d1 $ up "0 0*2 0*4 1" # sound "[arpy, bass2, bd]"

d1 $ every 2 (|+| speed "1") $ sound "arpy*4" |=| speed "1"

d1 $ sound (translate "how many gallons")

d1 $ sound "east east [east east] east"

d2 $ sound "hh hh hh [hh hh] hh hh"

d3 $ sound "cp [cp cp] [cp cp]"


An old silent pond...
A frog jumps into the pond,
splash! Silence again.

d1 $ sound "[[[east*1][east*1][east*2][east*1]] ,         [[hh*1][hh*1][hh*1][hh*2][hh*1][hh*1]] , [[arpy*1][arpy*2][arpy*2]]]]"

d1 $ sound "[[east*1][east*1][east*2][east*1]] [[hh*1][hh*1][hh*1][hh*2][hh*1][hh*1]] [[cp*1][cp*2][cp*2]]]"

d1 $ slow 3 $ sound "[[east*1][east*1][east*2][east*1]] [[hh*1][hh*1][hh*1][hh*2][hh*1][hh*1]] [[cp*1][cp*2][cp*2]]]"

d1 $ slow 6 $ sound "[[east*1][east*1][east*2][east*1]] [[hh*1][hh*1][hh*1][hh*2][hh*1][hh*1]] [[cp*1][cp*2][cp*2]]]"



d1 $ slow 6 $ sound "cc blip east hand sf dr2 gretsch"

d1 $ sound "baa"
hush

-- ab arpy bass3 bend bin blip bottle cc dr drum drumtraks east f feelfx future gabba glasstap glitch gretsch hand hc hh space sf odx

-- Sounds effects
-- baa battles birds3 breath fire glasstap seawolf


An old silent pond...
A frog jumps into the pond,
splash! Silence again.

d1 $ slow 3 $ sound "[[sf*1][sf*1][sf*2][sf*1]] [[gretsch*1][gretsch*1][gretsch*1][gretsch*2][gretsch*1][gretsch*1]] [[cp*1][cp*2][cp*2]]]"

d1 $ slow 4 $ sound "[[sf*1][sf*1][sf*2][sf*1]] [[gretsch*1][gretsch*1][gretsch*1][gretsch*2][gretsch*1][gretsch*1]] [[cp*1][cp*2][cp*2]] [~] ]"

hush

-- A Saga of Struggle: three haikus by Erin's friends
This is too damn hard
poetry can suck my dick
potato butthole

d1 $ slow 4 $ sound "[[[dr2*1] [dr2*1] [dr2*1] [dr2*1] [dr2*1]] [[dr2*3] [dr2*1] [dr2*1] [dr2*1] [dr2*1]] [[east*3] [east*2]] [~]] "

hush

there u go jenny
that was not so hard was it
learning is fun right

d1 $ slow 4 $ sound "[ [[sf*1] [sf*1] [sf*1] [sf*2]] [[cc*1] [cc*1] [cc*1] [cc*1] [cc*1] [cc*1] [cc*1]] [[sf*2] [sf*1] [sf*1] [sf*1]] [~] ]"

hush

Eat my ass ass ass
eat my ass ass ass ass ass
eat my ass ass ass

d1 $ slow 4 $ sound "[ [[dr2*1] [dr2*1] [dr2*1] [dr2*1] [dr2*1]] [[cc*1] [cc*1] [cc*1] [cc*1] [cc*1] [cc*1] [cc*1]] [[dr2*1] [dr2*1] [dr2*1] [dr2*1] [dr2*1]] [~] ]"

hush


--In a Station of the Metro by Ezra Pound
The apparition of these faces in the crowd;
Petals on a wet, black bough.

d1 $ slow 3 $ sound " [[[blip*1] [blip*4] [blip*1] [blip*1] [blip*2] [blip*1] [blip*1] [blip*1]] [[gretsch*2] [gretsch*1] [gretsch*1] [gretsch*1] [gretsch*1] [gretsch*1]][~]]"

d2 $ density 2 $ sound "bd hh"

hush

--Haiku by Jack Kerouac
 The taste
 of rain
—Why kneel?

d1 $ slow 4 $ sound " [[[east*1] [east*1]] [[east*1] [east*1]] [[east*1] [east*1]][~]]"

hush

--by Robert Hanley
I envy those who need the vastness
Of an ocean or infinity
Of space, in order to feel small

d1 $ slow 4 $ sound " [[[cc*1] [cc*2] [cc*1] [cc*1] [cc*1] [cc*1] [cc*2]] [[dr2*1] [dr2*1] [dr2*2] [dr2*1] [dr2*4]] [[cc*1] [cc*1] [cc*1] [cc*2] [cc*1] [cc*1] [cc*1]][~]]"

hush


-- by Scott Hicks
there is no jealousy
between
grains of sand

d1 $ slow 4 $ sound " [[[sf*1] [sf*1] [sf*1] [sf*3]] [[blip*2]] [[cp*1] [cp*1] [cp*1]][~]]"

hush

-- "There needs to be more emo poetry" by Magyar (Erin's roommate)
parents don't understand
puberty is hard
life is sufferring

d1 $ slow 4 $ sound " [[[cp*2] [cp*1] [cp*3]] [[cp*3] [cp*1] [cp*1]] [[cp*1] [cp*1] [cp*3]][~]]"

hush

--by David Taylor Nielsen
I love you like Godzilla
Loved Japan: flattened buildings,
Radioactive wreckage.

d1 $ slow 4 $ sound " [[[dr2*1] [dr2*1] [dr2*1] [dr2*1] [dr2*3]] [[sf*1] [sf*2] [sf*2] [sf*2]] [[east*5] [east*2]][~]]"

hush

-- by Ie Mcgavock
the art to simplicity
is accepting
its complexity

d1 $ slow 4 $ sound " [[[sf*1] [sf*1] [sf*1] [sf*4]] [[east*1] [east*3]] [[east*1] [east*4]][~]]"

hush

-- The Mincing Mockingbird Guide to Troubled Birds by Kim Bagwill and Matt Adrian
The risk I took was calulated  -- [1,1,1,1,1,4]
but man,                       -- [1,1]
am I bad at math               -- [1,1,1,1,1]

d1 $ slow 4 $ every 4 (density 2) $ sound " [[[gretsch*1] [gretsch*1] [gretsch*1] [gretsch*1] [gretsch*1] [gretsch*4]] [[east*1] [east*1]] [[dr2*1] [dr2*1] [dr2*1] [dr2*1] [dr2*1]] [~]]"

]
d2 $ density 2 $ sound "bd hh"

d3 $ slow 4 $ sound "~ ~ ~ gretsch*12" # up (run 12)

hush

d1 $ spread' slow "[2 3 1]/4" $ jux (iter 8) $ every 4 rev $ sound "[bd*6 [sn*3 bd*2] [bd*4 sn] [sn*6]]"
|+| speed ((+1.0)<$> slow 1 sinewave1) |+| cutoff ((*0.5)<$> slow 2 sinewave1) |+| resonance ((*0.5)<$> slow 3 sinewave1)

d1 $ smash 2 [3,2,8,1] $ stack [every 3 (0.25 <~) $ every 4 rev $ every 2 (0.25 <~) $ striate 128 $ sound "[breaks125]" |+| speed "0.7", every 2 rev $ every 5 (0.25 <~) $ every 3 rev $ every 2 (0.25 <~) $ sound "[[sytrus1/3]*16 [~ sytrus1/3]*24 [sytrus1/3 ~]*8 [sytrus1/3]*32]" |+| shape "-0.3" |+| cutoff "0.1" |+| resonance "0.1" |+| speed "[[1.0 0.8] [1.0 1.5 0.8] [0.5] [0.8 1.2]]"]





-- The Mincing Mockingbird Guide to Troubled Birds by Kim Bagwill and Matt Adrian
They might have passed
a very pleasant evening
had
shit
not gotten
real

d1 $ slow 7 $ sound " [[[sf*1] [sf*1] [sf*1] [sf*1]] [[sf*1] [sf*2] [sf*2] [sf*2]] [[blip*1]] [[blip*1]] [[east*1] [east*2]] [[blip*1]][~]]"


--All the world's a stage by Shakespeare
[[1.0,1.0,1.0,1.0,1.0,1.0],[1.0,1.0,1.0,1.0,1.0,1.0,2.0,2.0],[1.0,1.0,1.0,2.0,1.0,1.0,2.0],[1.0,1.0,2.0,1.0,1.0,1.0,1.0,2.0,1.0],[1.0,1.0,2.0,2.0,1.0,1.0,1.0,1.0,2.0],[1.0,1.0,1.0,1.0,1.0,1.0,1.0,1.0],[1.0,1.0,2.0,2.0,1.0,1.0,2.0],[1.0,2.0,2.0,1.0,2.0,1.0,1.0],[4.0,1.0,1.0,1.0,1.0,1.0,2.0],[1.0,1.0,2.0,1.0,1.0,2.0,2.0],[1.0,1.0,1.0,2.0,2.0,1.0,1.0,2.0],[1.0,1.0,1.0,1.0,1.0,2.0,1.0,1.0,1.0],[2.0,1.0,4.0,2.0,1.0,1.0,1.0,2.0],[2.0,1.0,2.0,4.0],[2.0,1.0,1.0,2.0,1.0,1.0,1.0,1.0,1.0,2.0],[1.0,1.0,1.0,2.0,1.0,1.0,2.0,1.0],[1.0,1.0,2.0,1.0,1.0,1.0,2.0,1.0],[1.0,1.0,1.0,1.0,1.0,2.0,2.0],[1.0,1.0,1.0,1.0,1.0,1.0,1.0,1.0,1.0,1.0],[1.0,1.0,1.0,1.0,1.0,3.0],[1.0,3.0,1.0,1.0,1.0,1.0,1.0,1.0],[1.0,2.0,1.0,1.0,1.0,1.0,1.0,1.0,1.0],[1.0,1.0,1.0,1.0,1.0,1.0,1.0,2.0,1.0],[2.0,2.0,1.0,2.0,2.0,1.0],[1.0,2.0,1.0,1.0,1.0,1.0,1.0,1.0,1.0],[1.0,1.0,1.0,1.0,3.0,3.0],[1.0,2.0,3.0,1.0,2.0,4.0],[1.0,1.0,1.0,1.0,1.0,1.0,1.0,1.0,1.0]]
